X: 011
T: Mrs Boswell of Auchinleck's Reel
C: attr. John French (1753-1803)
R: reel
B: "John French Collection", John French ed. p.1 #1
S: http://www.heallan.com/french.asp
Z: 2012 John Chambers <jc:trillian.mit.edu>
M: C
L: 1/8
K: Bb
F |\
B2 (d/c/B) AcFA | GBEG FB,DF | B2 (d/c/B) Acfe | df (e/d/c/B/) FBB :|
d |\
Bdfb fB (e/d/c/B/) | Acfc faAc | Bcfb fB (e/d/c/B/) |AFec dBBd |
Bdfb fB (e/d/c/B/) | Acfc faAc | (B/c/d/e/) fb BdFB | EGCe dB-B |]

%%sep 2 1 500
%%sep 1 1 500

